ui/assets/img/codemonitoring-notify-dark.svg

<svg width="89" height="87" viewBox="0 0 89 87" fill="none" xmlns="http://www.w3.org/2000/svg">
<g filter="url(#filter0_d)">
<path d="M32.4031 72.7636C32.9813 73.3418 33.7656 73.6667 34.5833 73.6667H36.125C36.8958 73.6667 37.6667 73.3583 38.2833 72.7725L49.6917 61.3333H68.5C70.1355 61.3333 71.704 60.6836 72.8605 59.5272C74.017 58.3707 74.6667 56.8022 74.6667 55.1667V18.1667C74.6667 16.5312 74.017 14.9626 72.8605 13.8062C71.704 12.6497 70.1355 12 68.5 12H19.1667C17.5312 12 15.9626 12.6497 14.8062 13.8062C13.6497 14.9626 13 16.5312 13 18.1667V55.1667C13 56.8022 13.6497 58.3707 14.8062 59.5272C15.9626 60.6836 17.5312 61.3333 19.1667 61.3333H31.5V70.5833C31.5 71.4011 31.8249 72.1853 32.4031 72.7636Z" fill="#343A4C"/>
</g>
<rect x="21" y="22" width="46" height="8" rx="4" fill="#798BAF"/>
<rect x="31" y="35" width="28" height="8" rx="4" fill="#94D82D"/>
<rect x="21" y="46" width="11" height="8" rx="4" fill="#798BAF"/>
<defs>
<filter id="filter0_d" x="3" y="4" width="81.6667" height="81.6667" filterUnits="userSpaceOnUse" color-interpolation-filters="sRGB">
<feFlood flood-opacity="0" result="BackgroundImageFix"/>
<feColorMatrix in="SourceAlpha" type="matrix" values="0 0 0 0 0 0 0 0 0 0 0 0 0 0 0 0 0 0 127 0"/>
<feOffset dy="2"/>
<feGaussianBlur stdDeviation="5"/>
<feColorMatrix type="matrix" values="0 0 0 0 0.0791667 0 0 0 0 0.0699306 0 0 0 0 0.0699306 0 0 0 1 0"/>
<feBlend mode="normal" in2="BackgroundImageFix" result="effect1_dropShadow"/>
<feBlend mode="normal" in="SourceGraphic" in2="effect1_dropShadow" result="shape"/>
</filter>
</defs>
</svg>

<svg width="89" height="87" fill="none" xmlns="http://www.w3.org/2000/svg"><g filter="url(#a)"><path d="M32.403 72.764a3.083 3.083 0 0 0 2.18.903h1.542c.77 0 1.542-.309 2.158-.895l11.409-11.439H68.5a6.167 6.167 0 0 0 6.167-6.166v-37A6.166 6.166 0 0 0 68.5 12H19.167A6.166 6.166 0 0 0 13 18.167v37a6.167 6.167 0 0 0 6.167 6.166H31.5v9.25c0 .818.325 1.602.903 2.18Z" fill="#343A4C"/></g><rect x="21" y="22" width="46" height="8" rx="4" fill="#798BAF"/><rect x="31" y="35" width="28" height="8" rx="4" fill="#94D82D"/><rect x="21" y="46" width="11" height="8" rx="4" fill="#798BAF"/><defs><filter id="a" x="3" y="4" width="81.667" height="81.667" filterUnits="userSpaceOnUse" color-interpolation-filters="sRGB"><feFlood flood-opacity="0" result="BackgroundImageFix"/><feColorMatrix in="SourceAlpha" values="0 0 0 0 0 0 0 0 0 0 0 0 0 0 0 0 0 0 127 0"/><feOffset dy="2"/><feGaussianBlur stdDeviation="5"/><feColorMatrix values="0 0 0 0 0.0791667 0 0 0 0 0.0699306 0 0 0 0 0.0699306 0 0 0 1 0"/><feBlend in2="BackgroundImageFix" result="effect1_dropShadow"/><feBlend in="SourceGraphic" in2="effect1_dropShadow" result="shape"/></filter></defs></svg>
